public/files/perm/themes/base/neo/img/arrow_back.svg

<svg fill="none" height="22" viewBox="0 0 21 22" width="21" xmlns="http://www.w3.org/2000/svg"><path d="m16.5356 10.1473h-9.57428l4.18288-4.18286c.3343-.33429.3343-.88286 0-1.21714-.3343-.33429-.8743-.33429-1.2086 0l-5.64857 5.6486c-.33429.3343-.33429.8743 0 1.2085l5.64857 5.6486c.3343.3343.8743.3343 1.2086 0s.3343-.8743 0-1.2086l-4.18288-4.1828h9.57428c.4714 0 .8571-.3857.8571-.8572 0-.4714-.3857-.8571-.8571-.8571z" fill="#fff"/></svg>

<svg width="21" height="22" viewBox="0 0 21 22" fill="none" xmlns="http://www.w3.org/2000/svg">
<path d="M16.5356 10.1473H6.96132L11.1442 5.96444C11.4785 5.63015 11.4785 5.08158 11.1442 4.7473C10.8099 4.41301 10.2699 4.41301 9.9356 4.7473L4.28703 10.3959C3.95274 10.7302 3.95274 11.2702 4.28703 11.6044L9.9356 17.253C10.2699 17.5873 10.8099 17.5873 11.1442 17.253C11.4785 16.9187 11.4785 16.3787 11.1442 16.0444L6.96132 11.8616H16.5356C17.007 11.8616 17.3927 11.4759 17.3927 11.0044C17.3927 10.533 17.007 10.1473 16.5356 10.1473Z" fill="white"/>
</svg>
